X: 325
T: THE POOR OLD WOMAN
T: An sean bhean bhochd
B: O'Neill's 325
M: C
L: 1/8
Z: 1999 by John Chambers <jc@trillian.mit.edu>
N: "Animated"
N: "Collected by F.O'Neill"
N: "2nd Setting"
K:F
F>G \
| A>AAB c2B>G | F2F2 F2A>B | c=Bcd c2_BA | d2G2 G2F>G |
| A>BA>G F2F>G | AFAc Hf2 e>f | dcAc f2 AB | cBA>G F2 ||


